!!!SOCIAL_FUNCTION:	songs used in treatment of the sick
!!!PDT:	1918

Specific Region: Dakotas, Minnesota, Montana, Nebraska
!!!REG: Dakotas and Montana
!!!LING_GROUP: Siouan
!!!LANG: Tone
!!!OTL@ENG: Song of the Bear
!!!ONM: No. 88
**kern
*Imale
*clefF4
*k[b-e-a-d-g-c-]
*M2/4
*MM80
8e-
=1
4e-
8f
8e-
=2
4.e-
8B-
=3
4e-
16f
16e-
16e-
16d
=4
16e-
8.B-
[4B-
=5
8B-]
8B-
8B-
8B-
=6
4e-
8f
8e-
=7
4.e-
8B-
=8
4e-
16f
16e-
16e-
16d
=9||
*M3/4
16e-
8.B-
2B-
=10||
*M2/4
4B-
4B-
=11
4B-
16e-
8.B-
=12||
*M3/4
8A-
8G-
2G-
=13||
*M2/4
4A-
16B-
8.A-
=14||
*M3/4
8G-
8E-
2E-
=15
[4E-
8.E-]
16G-
16G-
8.E-
=16||
*M2/4
4E-
4D-
=17
16BB-
8.BB-
8.BB-
16e-
=18
*MM66
(16e-
8.B-)
8B-
8B-
=19
8B-
(16e-
16B-)
8B-
16.B-
32G-
=20
8B-
(16e-
16B-)
8.B-
16A-
=21
8G-
8G-
(8G-
8E-)
=22
4E-
8.E-
16BB-
=23
4E-
8E-
8E-
=24
16G-
8.E-
8G-
16E-
16D-
=25
4BB-
4BB-
=26
4BB-
4r
==
*-
!!!CNT: Native American -- Sioux
!!!MRD: 1911/07//-1914///
!!!OCL: Frances Densmore
!!!YOR1: Teton Sioux Music, Bulletin 61,
!!!YOR2: Bureau of American Ethnology, Smithsonian Institution
!!!PPR: Government Printing Office
!!!PPP: Washington, D.C.
!!!PDT: 1918///
!!!ENC: Craig Stuart Sapp
!!!END: 2002/03/25/
!!!EEV: 2002/03/31/
!!!AGN: Song of Personal Dreams/Song Used in Treatment of the Sick
!!!MPN@@SIO: Wangbli'-waha'chungka
!!!MPN@ENG: Eagle Shield
!!!TXO: Teton Sioux
!!!MLC: Standing Rock Reservation, South Dakota, United States of America
!!!ARL: 45.9/-100.7#
!!!catalog: Catalogue No. 518
!!!PPG: 264
!!!EFL: 88/245
!!!VTS: 3424476204
